X: 104
T: Mrs Campbell of Treesbank's Reel
C: attr. John French (1753-1803)
R: reel
B: "John French Collection", John French ed. p.10 #4
S: http://www.heallan.com/french.asp
Z: 2012 John Chambers <jc:trillian.mit.edu>
M: C
L: 1/8
K: C
f | ec T(cB/c/) (Gc)EG | FAGE FD-Df | ec T(cB/c/) (Gc)EG |1FDdB cC-C :|2 FDfd (ecc) ||
e | (c/d/e/f/ g).e afge | (c/d/e/f/ g)e afde | (c/d/e/f/ g)e afge | fdBg e(cce) |
    (c/d/e/f/ g)e afge | (c/d/e/f/ g)e afdf | ecge afdc | BGfd ec-c |]

%%sep 2 1 500
%%sep 1 1 500

